X:7
T:Lambert Waddle
C:Heather Vigar-Horsley
M:6/8
R:jig
K:C
e2e e2c|dcB A2G|E2G _E2G|E2G C3|\
d2B cBA|BAG AGF|E2G _E2G|E2G C3:|
F2A d2c|B2A G2F|E2G e2d|c2B A2G|\
F2A d2c|B2A G2F|E2G _E2G|E2G C3:|

